lib/assets/icons/svg/outlined-navigation-arrowleft.svg

<svg xmlns="http://www.w3.org/2000/svg" viewBox="0 0 24 24"><path d="M9.646 17.247a.464.464 0 0 1-.35-.15.48.48 0 0 1 0-.7l4.35-4.41-4.35-4.39a.495.495 0 1 1 .7-.7l4.72 4.71c.09.094.141.22.14.35a.641.641 0 0 1-.14.41l-4.72 4.71a.485.485 0 0 1-.35.17z"/></svg>

<svg viewBox="0 0 24 24" xmlns="http://www.w3.org/2000/svg">
  <path  d="M 9.646 17.247 C 9.513 17.249 9.386 17.195 9.296 17.097 C 9.094 16.908 9.094 16.587 9.296 16.397 L 13.646 11.987 L 9.296 7.597 C 9.026 7.328 9.15 6.868 9.518 6.769 C 9.688 6.724 9.871 6.772 9.996 6.897 L 14.716 11.607 C 14.806 11.701 14.857 11.827 14.856 11.957 C 14.858 12.106 14.809 12.251 14.716 12.367 L 9.996 17.077 C 9.908 17.18 9.781 17.242 9.646 17.247 Z"/>
</svg>
